assets/images/product-illustrations/broken-magnifying-glass.svg

<svg xmlns="http://www.w3.org/2000/svg" width="117" height="168" fill="none" viewBox="0 0 117 168"><path fill="#FED607" d="M108.744 72.0623C120.93 49.8776 112.943 22.0801 90.9055 9.97471C68.8677 -2.13066 41.1238 6.0402 28.9378 28.2248C16.7518 50.4095 24.7382 78.207 46.776 90.3124C68.8138 102.418 96.5577 94.2469 108.744 72.0623Z"/><path fill="#50EEF6" d="M69.1086 86.3909C89.0811 86.3909 105.272 70.2 105.272 50.2275C105.272 30.2551 89.0811 14.0642 69.1086 14.0642C49.1362 14.0642 32.9453 30.2551 32.9453 50.2275C32.9453 70.2 49.1362 86.3909 69.1086 86.3909Z"/><path fill="#28736D" d="M69.1182 53.2876L79.7482 43.8642C79.7482 43.8642 78.5682 43.1276 77.2415 43.1276C75.9149 43.1276 65.6649 43.4209 65.6649 43.4209L65.2949 38.9976C65.2949 38.9976 59.9115 50.3909 59.6915 51.3842C59.4715 52.3776 59.9849 53.7442 59.9849 53.7442L62.9349 63.0342L63.5615 64.5842L72.6315 70.8876L69.8682 62.1509L72.6315 56.5109L69.1182 53.2876Z"/><path fill="#28736D" d="M54.6055 25.9843L65.4455 37.9276L61.6855 49.4309L54.6055 25.9843Z"/><path fill="#FF7101" d="M38.8014 84.6309L10.7814 135.628C10.7814 135.628 7.07144 144.904 15.3548 149.454C23.6348 154.004 29.1348 144.964 29.4948 144.308C29.8548 143.651 51.2448 104.914 51.2448 104.914"/><path fill="#E5FAFE" d="M83.4479 7.12094C83.4479 7.12094 89.3245 9.63761 91.5112 10.8376C93.6979 12.0376 97.8312 14.8776 97.8312 14.8776C97.8312 14.8776 102.315 7.23761 95.2079 3.33094C88.1012 -0.572392 84.5079 5.70761 83.4512 7.11761L83.4479 7.12094Z"/><path fill="#E5FAFE" d="M35.3285 82.0142C35.3285 82.0142 34.3818 81.9209 33.7818 83.0142C33.1818 84.1075 33.1651 85.9475 33.1651 85.9475C33.1651 85.9475 31.5218 86.6109 30.7984 87.9209C30.0784 89.2342 29.4251 94.5675 41.7051 101.741C53.9885 108.914 57.3618 102.514 57.4318 102.128C57.5018 101.741 57.4784 99.4509 57.4784 99.4509C57.4784 99.4509 60.5585 97.7275 59.8685 95.3575C59.8685 95.3575 50.7251 92.8509 46.5385 90.3575C42.3518 87.8642 35.3218 82.0109 35.3218 82.0109L35.3285 82.0142Z"/><path fill="#E5FAFE" d="M9.90817 143.048C9.90817 143.048 7.70483 143.688 7.27483 144.731C6.84483 145.774 7.06817 150.028 13.0315 153.161C18.9948 156.294 23.1682 155.174 23.5715 153.401C23.9748 151.631 23.2515 150.094 23.2515 150.094C23.2515 150.094 18.4582 151.304 15.3482 149.454C12.2382 147.604 9.9015 143.048 9.9015 143.048H9.90817Z"/><path fill="#FED607" d="M13.5185 153.571L8.21515 149.234C8.21515 149.234 5.49517 150.301 3.77517 152.914C2.05517 155.528 1.27184 161.358 6.77517 164.811C13.1652 168.464 17.4019 162.821 18.6652 160.528C19.9252 158.231 19.3685 155.364 19.3685 155.364C19.3685 155.364 15.1018 154.584 13.5218 153.574L13.5185 153.571Z"/><path stroke="#28736D" stroke-linecap="round" stroke-miterlimit="10" d="M49.0748 19.7908L65.3348 37.7074L59.3615 52.3074L63.3415 64.2508L72.3382 70.6741L64.3382 80.1774V86.1508"/><path stroke="#28736D" stroke-linecap="round" stroke-miterlimit="10" d="M61.0213 58.2776L54.3846 60.6009L44.098 58.6109L35.4713 63.5876"/><path stroke="#28736D" stroke-linecap="round" stroke-miterlimit="10" d="M69.0084 53.2142L80.2651 43.0176L83.5818 33.3942L98.5118 29.4109"/><path stroke="#28736D" stroke-linecap="round" stroke-miterlimit="10" d="M65.3346 37.7075L65.6646 50.3142L75.6179 58.9409L88.8912 69.5609L98.5112 70.5542"/><path stroke="#28736D" stroke-linecap="round" stroke-miterlimit="10" d="M72.6318 70.8875L69.6484 61.9275L72.9651 56.6208"/><path stroke="#28736D" stroke-linecap="round" stroke-miterlimit="10" d="M80.2647 43.0176L65.5547 43.3476"/><path fill="#FFED8F" d="M100.815 18.2008C100.578 20.5608 102.725 24.8275 104.422 27.8875C109.378 36.8175 111.382 47.3541 110.052 57.4808C109.842 59.0675 109.552 60.6541 109.018 62.1608C108.335 64.0941 107.272 65.8675 106.238 67.6408C105.135 69.5341 104.052 71.4641 103.425 73.5641C102.798 75.6641 102.655 77.9708 103.425 80.0208C103.425 80.0208 117.098 68.9741 113.558 40.2175C111.052 29.7475 103.112 19.6308 100.815 18.2008Z"/><path stroke="#002140" stroke-linecap="round" stroke-linejoin="round" d="M68.8751 96.0875C94.1145 96.0875 114.575 75.6269 114.575 50.3875C114.575 25.1481 94.1145 4.6875 68.8751 4.6875C43.6357 4.6875 23.175 25.1481 23.175 50.3875C23.175 75.6269 43.6357 96.0875 68.8751 96.0875Z"/><path stroke="#002140" stroke-linecap="round" stroke-linejoin="round" d="M69.0181 86.4076C89.0532 86.4076 105.295 70.166 105.295 50.1309C105.295 30.0959 89.0532 13.8542 69.0181 13.8542C48.9831 13.8542 32.7415 30.0959 32.7415 50.1309C32.7415 70.166 48.9831 86.4076 69.0181 86.4076Z"/><path fill="#E5FAFE" d="M78.6849 32.0741C85.8849 37.6808 88.8749 42.4441 89.7483 52.3175C90.4349 54.7141 90.8483 58.4741 94.3483 58.9008C97.8483 59.3308 98.6549 54.6608 98.6549 54.6608C100.572 42.8541 95.9149 32.5441 85.7316 25.2408C83.2883 23.4708 79.3983 21.2275 76.3616 25.0041C73.3249 28.7808 78.6816 32.0741 78.6816 32.0741H78.6849Z" opacity=".9"/><path stroke="#002140" stroke-linecap="round" stroke-linejoin="round" d="M83.375 6.88752C83.4583 6.70419 83.5517 6.52086 83.6517 6.33752C85.875 2.29086 90.9583 0.810856 95.0083 3.03419C99.055 5.25752 100.535 10.3409 98.3116 14.3909C98.185 14.6209 98.0483 14.8442 97.905 15.0575"/><path stroke="#002140" stroke-linecap="round" stroke-linejoin="round" d="M59.8081 95.2243C60.1314 96.2176 60.1214 97.1109 59.7247 97.8376C58.1314 100.734 50.9314 99.8376 43.6414 95.8309C36.3514 91.8243 31.7314 86.2276 33.3247 83.3309C33.7214 82.6076 34.4714 82.1176 35.4847 81.8576"/><path stroke="#002140" stroke-linecap="round" stroke-linejoin="round" d="M57.4218 99.5676C57.6918 100.661 57.6218 101.664 57.1585 102.501C55.3151 105.854 47.9118 105.328 40.6218 101.324C33.3318 97.3176 28.9151 91.3509 30.7584 87.9975C31.2184 87.1575 32.0285 86.5642 33.0951 86.2042"/><path stroke="#002140" stroke-linecap="round" stroke-linejoin="round" d="M32.7286 95.4909C29.1453 102.014 13.242 130.961 11.1453 134.778C8.0453 140.418 10.492 146.784 15.2753 149.411C20.0586 152.038 26.412 150.121 29.2253 145.001C31.7286 140.444 47.7453 111.291 51.2487 104.918"/><path stroke="#002140" stroke-linecap="round" stroke-linejoin="round" d="M23.1982 150.084C23.8449 151.341 23.9782 152.541 23.4616 153.478C22.2116 155.754 17.6048 155.628 13.1748 153.194C8.74485 150.761 6.16822 146.941 7.41822 144.664C7.88822 143.808 8.83487 143.291 10.0682 143.111"/><path stroke="#002140" stroke-linecap="round" stroke-linejoin="round" d="M19.4819 155.301C19.8419 157.254 19.5485 159.364 18.5019 161.271C16.1585 165.534 10.9352 167.168 6.83854 164.914C2.73854 162.661 1.3152 157.381 3.65853 153.114C4.63187 151.344 6.09852 150.028 7.77519 149.254"/><path fill="#E5FAFE" d="M39.692 41.6075C39.432 43.5809 39.8553 45.7442 41.262 47.1509C42.6687 48.5575 45.182 48.9009 46.652 47.5575C47.5853 46.7042 47.942 45.3875 48.0553 44.1275C48.1687 42.8675 48.0787 41.5876 48.3187 40.3475C48.5987 38.8975 49.3153 37.5642 49.6553 36.1275C49.9953 34.6909 49.862 32.9775 48.7353 32.0242C47.502 30.9809 45.542 31.2975 44.272 32.2975C41.8453 34.2109 40.0853 38.6309 39.6953 41.6075H39.692Z" opacity=".9"/></svg>

<svg xmlns="http://www.w3.org/2000/svg" width="117" height="168" fill="none" viewBox="0 0 117 168"><path fill="#fed607" d="M108.744 72.062c12.186-22.184 4.199-49.982-17.838-62.087C68.868-2.131 41.124 6.04 28.938 28.225s-4.2 49.982 17.838 62.087 49.782 3.935 61.968-18.25"/><path fill="#50eef6" d="M69.109 86.39c19.972 0 36.163-16.19 36.163-36.162 0-19.973-16.19-36.164-36.163-36.164S32.945 30.255 32.945 50.228c0 19.972 16.191 36.163 36.164 36.163"/><path fill="#28736d" d="m69.118 53.288 10.63-9.424s-1.18-.736-2.507-.736c-1.326 0-11.576.293-11.576.293l-.37-4.423S59.91 50.39 59.69 51.384c-.22.994.294 2.36.294 2.36l2.95 9.29.627 1.55 9.07 6.304-2.764-8.737 2.764-5.64z"/><path fill="#28736d" d="m54.606 25.984 10.84 11.944-3.76 11.503z"/><path fill="#ff7101" d="m38.801 84.63-28.02 50.998s-3.71 9.276 4.574 13.826c8.28 4.55 13.78-4.49 14.14-5.146.36-.657 21.75-39.394 21.75-39.394"/><path fill="#e5fafe" d="M83.448 7.12s5.877 2.518 8.063 3.718 6.32 4.04 6.32 4.04 4.484-7.64-2.623-11.547C88.1-.572 84.508 5.708 83.45 7.118zM35.329 82.014s-.947-.093-1.547 1c-.6 1.094-.617 2.934-.617 2.934s-1.643.663-2.367 1.973c-.72 1.313-1.373 6.646 10.907 13.82 12.284 7.173 15.657.773 15.727.387.07-.387.046-2.677.046-2.677s3.08-1.723 2.39-4.093c0 0-9.143-2.507-13.33-5-4.186-2.494-11.216-8.347-11.216-8.347zM9.908 143.048s-2.203.64-2.633 1.683-.207 5.297 5.756 8.43c5.964 3.133 10.137 2.013 10.54.24.404-1.77-.32-3.307-.32-3.307s-4.793 1.21-7.903-.64-5.446-6.406-5.446-6.406z"/><path fill="#fed607" d="m13.519 153.571-5.304-4.337s-2.72 1.067-4.44 3.68-2.503 8.444 3 11.897c6.39 3.653 10.627-1.99 11.89-4.283 1.26-2.297.704-5.164.704-5.164s-4.267-.78-5.847-1.79z"/><path stroke="#28736d" stroke-linecap="round" stroke-miterlimit="10" d="m49.075 19.79 16.26 17.917-5.973 14.6 3.98 11.944 8.996 6.423-8 9.503v5.974"/><path stroke="#28736d" stroke-linecap="round" stroke-miterlimit="10" d="M61.021 58.278 54.385 60.6l-10.287-1.99-8.627 4.977M69.008 53.214l11.257-10.196 3.317-9.624 14.93-3.983"/><path stroke="#28736d" stroke-linecap="round" stroke-miterlimit="10" d="m65.335 37.708.33 12.606 9.953 8.627L88.89 69.56l9.62.993"/><path stroke="#28736d" stroke-linecap="round" stroke-miterlimit="10" d="m72.632 70.888-2.984-8.96 3.317-5.307M80.265 43.018l-14.71.33"/><path fill="#ffed8f" d="M100.815 18.2c-.237 2.36 1.91 6.628 3.607 9.688 4.956 8.93 6.96 19.466 5.63 29.593-.21 1.587-.5 3.173-1.034 4.68-.683 1.933-1.746 3.707-2.78 5.48-1.103 1.893-2.186 3.823-2.813 5.923s-.77 4.407 0 6.457c0 0 13.673-11.047 10.133-39.803-2.506-10.47-10.446-20.587-12.743-22.017"/><path stroke="#002140" stroke-linecap="round" stroke-linejoin="round" d="M68.875 96.088c25.24 0 45.7-20.461 45.7-45.7s-20.46-45.7-45.7-45.7-45.7 20.46-45.7 45.7c0 25.239 20.46 45.7 45.7 45.7"/><path stroke="#002140" stroke-linecap="round" stroke-linejoin="round" d="M69.018 86.408c20.035 0 36.277-16.242 36.277-36.277S89.053 13.854 69.018 13.854 32.742 30.096 32.742 50.131s16.241 36.277 36.276 36.277"/><path fill="#e5fafe" d="M78.685 32.074c7.2 5.607 10.19 10.37 11.063 20.244.687 2.396 1.1 6.156 4.6 6.583 3.5.43 4.307-4.24 4.307-4.24 1.917-11.807-2.74-22.117-12.923-29.42-2.444-1.77-6.334-4.014-9.37-.237-3.037 3.777 2.32 7.07 2.32 7.07z" opacity=".9"/><path stroke="#002140" stroke-linecap="round" stroke-linejoin="round" d="M83.375 6.888q.126-.276.277-.55a8.364 8.364 0 0 1 14.66 8.053q-.191.346-.407.666M59.808 95.224c.323.994.313 1.887-.083 2.614-1.594 2.896-8.794 2-16.084-2.007s-11.91-9.603-10.316-12.5c.396-.723 1.146-1.213 2.16-1.473"/><path stroke="#002140" stroke-linecap="round" stroke-linejoin="round" d="M57.422 99.568c.27 1.093.2 2.096-.264 2.933-1.843 3.353-9.246 2.827-16.536-1.177-7.29-4.006-11.707-9.973-9.864-13.326.46-.84 1.27-1.434 2.337-1.794"/><path stroke="#002140" stroke-linecap="round" stroke-linejoin="round" d="m32.729 95.49-21.584 39.288c-3.1 5.64-.653 12.006 4.13 14.633 4.784 2.627 11.137.71 13.95-4.41 2.504-4.557 18.52-33.71 22.024-40.083"/><path stroke="#002140" stroke-linecap="round" stroke-linejoin="round" d="M23.198 150.084c.647 1.257.78 2.457.264 3.394-1.25 2.276-5.857 2.15-10.287-.284s-7.007-6.253-5.757-8.53c.47-.856 1.417-1.373 2.65-1.553"/><path stroke="#002140" stroke-linecap="round" stroke-linejoin="round" d="M19.482 155.301a9 9 0 0 1-.98 5.97c-2.343 4.263-7.567 5.897-11.663 3.643-4.1-2.253-5.524-7.533-3.18-11.8a9 9 0 0 1 4.116-3.86"/><path fill="#e5fafe" d="M39.692 41.608c-.26 1.973.163 4.136 1.57 5.543 1.407 1.406 3.92 1.75 5.39.406.933-.853 1.29-2.17 1.403-3.43.114-1.26.024-2.54.264-3.78.28-1.45.996-2.783 1.336-4.22s.207-3.15-.92-4.103c-1.233-1.043-3.193-.727-4.463.273-2.427 1.914-4.187 6.334-4.577 9.31z" opacity=".9"/></svg>
